X:5
T:En Passant Par Le Bois
M:2/4
L:1/8
N:Pas lent et doux
N:La Bourre 4th edition 1929, page 22
Z:Steve Mansfield www.lesession.co.uk April 2012
K:Bb
F |: B d d c | B3 c | d f e d |
c > d e f | B2 d2 |1 c3 F :|2 !fermata!c3 c | f3 e | d2 f2 |
!fermata! c3 c | f > e d c | B > c d e | d2 c2 | !fermata! B4 |]

